X:1
T:O'Byrne Across the Glen  "Arranged by Tommy Tully"
M:C
L:1/8
Q:80
C:Traditional Irish
S:March
K:HP
|: {g}e3/2c/2 | \
{g}A2{GdGe}A3/2B/2{gcd}c{e}A{gef}eA | \
{gcd}cB{G}B3/2c/2{Gdc}d2{g}c3/2d/2 |
{gef}e2{A}e3/2f/2{gef}ec{g}B{d}c | \
{g}A2{GAG}A3/2{d}B/2{G}A2:| [ | \
{g}c3/2d/2 |
{gef}e2{A}e3/2f/2{g}ed{g}cd | \
{gef}e2{A}e3/2f/2{g}ed{g}ce | \
a2{GdG}a3/2g/2{a}fe{Gdc}dc |
{gcd}cB{G}B3/2c/2{gBd}B2{gef}e3/2c/2{g}A2{GdGe}A3/2B/2{gcd}c{e}A{gef}eA |
